X:7
T:Din Tarrent's
R:polka
M:2/4
L:1/8
K:D
a>(f d) (f | e)(d     e2) | (e/f/e/d/) (3(c/d/c/)A | (Bc)    (df) |
a>(f d) (f | e)(d     e2) | (e/f/e/d/) (3(c/d/c/)A |1 (Bc)     d2 :|2 (Bc) d(B/c/ || 
d)(B f) (B | d)(B f)(e/d/ | c)B           (eA) | (cA)    (cd) |
(fb)  (ba) | (fb)    (ba) | (fa)          (fe) |1 (c/B/A) B>c :|2 (c/B/A) B2 |]
